X:1
T:The Dying Soldier
M:6/8
L:1/8
K:D
 D|D-F A d2 B| A2 B F2 E/2D/2|F-E D D2 D| D3- D2 A| d2 A Bcd| e2 A d2c/2-B/2|\
 A2 E G2 B| A3- A2 A| d2 A Bcd| e2 A d2 c/2B/2| A2 E G2 B| A3 A2 F|\
 DFA d2 B| A2 B F2 E/2D/2| F2 E D2 D| D3- D2||
